src/img/icons/soc_5.svg

<svg width="40" height="40" viewBox="0 0 40 40" fill="none" xmlns="http://www.w3.org/2000/svg">
<g id="1">
<rect id="Rectangle 18623" x="0.5" y="0.5" width="39" height="39" rx="19.5" stroke="#E4DEE0"/>
<path id="Vector" d="M25.658 14.8496C25.5365 14.7868 25.4182 14.7179 25.3036 14.6433C24.9704 14.423 24.6648 14.1634 24.3935 13.8701C23.7148 13.0935 23.4613 12.3057 23.368 11.7541H23.3717C23.2937 11.2962 23.326 11 23.3309 11H20.2395V22.9537C20.2395 23.1141 20.2395 23.2728 20.2328 23.4295C20.2328 23.449 20.2309 23.467 20.2298 23.488C20.2298 23.4966 20.2298 23.5056 20.2279 23.5146C20.2279 23.5169 20.2279 23.5191 20.2279 23.5214C20.1953 23.9503 20.0578 24.3646 19.8275 24.7279C19.5972 25.0912 19.2812 25.3923 18.9072 25.6048C18.5174 25.8265 18.0766 25.9428 17.6281 25.9423C16.1878 25.9423 15.0205 24.7678 15.0205 23.3174C15.0205 21.867 16.1878 20.6925 17.6281 20.6925C17.9008 20.6923 18.1717 20.7352 18.431 20.8196L18.4347 17.672C17.6478 17.5704 16.8483 17.6329 16.0867 17.8557C15.3252 18.0785 14.618 18.4567 14.0099 18.9665C13.4771 19.4294 13.0292 19.9818 12.6863 20.5988C12.5558 20.8238 12.0634 21.7278 12.0038 23.1951C11.9663 24.028 12.2164 24.8908 12.3357 25.2474V25.2549C12.4106 25.4649 12.7013 26.1815 13.1749 26.7856C13.5568 27.2702 14.0079 27.6958 14.5139 28.0489V28.0414L14.5214 28.0489C16.018 29.0658 17.6773 28.9991 17.6773 28.9991C17.9645 28.9875 18.9267 28.9991 20.0194 28.4813C21.2313 27.9072 21.9213 27.0518 21.9213 27.0518C22.3621 26.5408 22.7126 25.9583 22.9577 25.3295C23.2375 24.5942 23.3309 23.7122 23.3309 23.3598V17.0181C23.3683 17.0406 23.8678 17.3709 23.8678 17.3709C23.8678 17.3709 24.5874 17.8322 25.7101 18.1325C26.5156 18.3463 27.6008 18.3913 27.6008 18.3913V15.3224C27.2205 15.3637 26.4484 15.2437 25.658 14.8496Z" fill="#AE9BA5"/>
</g>
</svg>

<svg xmlns="http://www.w3.org/2000/svg" width="40" height="40" fill="none">
  <rect width="39" height="39" x=".5" y=".5" stroke="#E4DEE0" rx="19.5"/>
  <path fill="#AE9BA5" d="M25.658 14.85a4.103 4.103 0 0 1-.354-.207 4.985 4.985 0 0 1-.91-.773 4.292 4.292 0 0 1-1.026-2.116h.004c-.078-.458-.046-.754-.041-.754H20.24v11.954c0 .16 0 .319-.007.476l-.003.058c0 .009 0 .018-.002.027v.006a2.625 2.625 0 0 1-1.32 2.084c-.39.221-.831.338-1.28.337a2.616 2.616 0 0 1-2.607-2.625 2.616 2.616 0 0 1 2.607-2.625c.273 0 .544.043.803.128l.004-3.148a5.743 5.743 0 0 0-4.425 1.294 6.065 6.065 0 0 0-1.324 1.633c-.13.225-.623 1.129-.682 2.596-.038.833.212 1.696.332 2.052v.008c.075.21.365.927.839 1.53.382.485.833.91 1.339 1.264v-.008l.007.008c1.497 1.017 3.156.95 3.156.95.288-.011 1.25 0 2.342-.518a5.878 5.878 0 0 0 1.902-1.43 5.94 5.94 0 0 0 1.037-1.721 6.45 6.45 0 0 0 .373-1.97v-6.342c.037.023.537.353.537.353s.72.461 1.842.762c.806.213 1.89.258 1.89.258v-3.069c-.38.042-1.152-.078-1.942-.472Z"/>
</svg>
